!!!Melodie: eigene
!!!Typ: Lied
**kern	**silbe	**silbe	**silbe	**silbe	**silbe	**silbe	**silbe	**silbe
*clefG2	*lang:DE	*lang:DE	*lang:DE	*lang:DE	*lang:DE	*lang:DE	*lang:DE	*lang:DE
*k[f#]	*	*	*	*	*	*	*	*
*M3/4	*	*	*	*	*	*	*	*
4r	%	%	%	%	%	%	%	%
4r	%	%	%	%	%	%	%	%
=|:	=	=	=	=	=	=	=	=
4g	Nun	Sein’	Er	da#	Wie	so	Die	sie
2g	lob’,	Wohl#	hat	#zu	Vä#	tut	Got#	bleibt
4f#	mein’	#tat	uns	sein	#ter	der	#tes	bei
2e	Seel’,	tut	wis#	Güt’	sich	Herr	#Gnad'	der
4d	den	er	#sen	ohn	er#	uns	al#	Ge#
(2g	Her#	meh#	las#	Ma#	#bar#	Ar#	#lei#	#mei#
4a)	|	|	|	|	|	|	|	|
2b	#ren	#ren,	#sen	#ßen,	#men	#men,	#ne	#ne,
=	=	=	=	=	=	=	=	=
4b	was	ver#	sein	es	ob	so	steht	die,
2b	in	#giss	hei#	man#	ih#	wir	fest	stets
4b	mir	das	#lig's	#gelt	#rer	ihn	und	in
2b	ist,	nicht,	Recht	an	jung#	kind#	bleibt	sei#
4a	den	O	und	Er#	#en	#lich	in	#ner
2g	Na#	Her#	sein	#bar#	Kin#	fürch#	E#	Furcht
4f#	#men	#ze	Ge#	#mung	#de#	#ten	#wig#	be#
2g	sein;	mein!	#richt,	nicht.	#lein:	rein,	#keit;	#reit,
=:|	=	=	=	=	=	=	=	=
4g	.	hat	.	sein	.	Er	.	will
2g	.	dir	.	Zorn	.	kennt	.	sei#
4b	.	dein’	.	lässt	.	das	.	#nen
2a	.	Sünd’	.	er	.	arm’	.	Bund
4b	.	ver#	.	wohl	.	Ge#	.	be#
(2g	.	#ge#	.	fah#	.	#schlech#	.	#wah#
4f#)	.	|	.	|	.	|	.	|
2e	.	#ben,	.	#ren,	.	#te	.	#ren.
=	=	=	=	=	=	=	=	=
4e	.	und	.	straft	.	er	.	Er
2a	.	heilt	.	nicht	.	weiß,	.	herrscht
4f#	.	dein	.	nach	.	wir	.	im
4g	.	Schwach#	.	uns#	.	sind	.	Him#
2e	.	#heit	.	#'rer	.	nur	.	#mel#
2.d	.	groß,	.	Schuld,	.	Staub,	.	#reich:
=	=	=	=	=	=	=	=	=
4r	.	%	.	%	.	%	.	%
4r	.	%	.	%	.	%	.	%
4d	.	er#	.	die	.	gleich#	.	lobt
2g	.	#rett'	.	Gnad’	.	#wie	.	ihn,
4g	.	dein	.	tut	.	das	.	ihr
2a	.	ar#	.	er	.	Gras	.	En#
4a	.	#mes	.	nicht	.	vom	.	#gel#
2.b	.	Le#	.	spa#	.	Fel#	.	#scha#
2g	.	#ben,	.	#ren,	.	#de,	.	#ren,
=	=	=	=	=	=	=	=	=
4g	.	nimmt	.	den	.	ein’	.	tut
2cc	.	dich	.	Blö#	.	Blum’	.	sein
4cc	.	in	.	#den	.	und	.	Be#
2b	.	sei#	.	ist	.	fal#	.	#fehl
4b	.	#nen	.	er	.	#lend'	.	zu#
2.a	.	Schoß	.	hold;	.	Laub:	.	#gleic,
=	=	=	=	=	=	=	=	=
4r	.	%	.	%	.	%	.	%
4r	.	%	.	%	.	%	.	%
4a	.	mit	.	sein	.	Der	.	dem
2b	.	rech#	.	Güt'	.	Wind	.	gro#
4b	.	#tem	.	ist	.	nur	.	#ßen
2cc	.	Trost	.	hoch	.	drü#	.	Herr’n
4cc	.	be#	.	er#	.	#ber	.	zu
2.dd	.	#schüt#	.	#ha#	.	we#	.	Eh#
2g	.	#tet,	.	#ben	.	#het,	.	#ren,
=	=	=	=	=	=	=	=	=
4b	.	ver#	.	ob	.	so	.	und
2a	.	#jüngt	.	den',	.	ist	.	treibt
4f#	.	dem	.	die	.	es	.	sein
4g	.	Ad#	.	fürch#	.	nim#	.	hei#
2e	.	#ler	.	#ten	.	#mer	.	#lig'
2.d	.	gleich;	.	ihn;	.	da;	.	Wort;
=	=	=	=	=	=	=	=	=
4r	.	%	.	%	.	%	.	%
4r	.	%	.	%	.	%	.	%
4d	.	der	.	so	.	al#	.	Mein’
2g	.	Herr	.	fern	.	#so	.	Seel’
4f#	.	schafft	.	der	.	der	.	soll
2e	.	Recht,	.	Ost	.	Mensch	.	auch
4d	.	be#	.	vom	.	ver#	.	ver#
2a	.	#hü#	.	A#	.	#ge#	.	#meh#
2a	.	#tet	.	#bend,	.	#het,	.	#ren
=	=	=	=	=	=	=	=	=
4b	.	die	.	ist	.	sein	.	sein
2cc	.	Lei#	.	uns#	.	En#	.	Lob
4b	.	|	.	|	.	|	.	|
(4g	.	#den'	.	#'re	.	#de	.	an
4b)	.	in	.	Sünd’	.	ist	.	al#
4a	.	sei’m	.	da#	.	ihm	.	#lem
2.;g	.	Reich.	.	hin.	.	nah.	.	Ort.
==	==	==	==	==	==	==	==	==
*-	*-	*-	*-	*-	*-	*-	*-	*-
